X:7
T:Chips and Shavings. GS.007
M:4/4
L:1/8
Q:1/2=100
S:George Spencer m/s, Leeds,1831
R:.Reel
O:England
A:Leeds
N:â€™ George Spencer 1831â€² written on the stave at the end of the music..
H:1831
Z:vmp.Cherri Graebe
K:D major
â€œ_No time sig. in msâ€
dBAF G2 (FE) | DFAF GE E2 | dBAF G2 (FE) | DFAF FD D2 :|!
|:dfaf g2 fe | dfaf (g2e)e | dfaf g2 (fe) | dBAF FD D2:|

